packages/radix-icons/twoTone/15/eye.svg

<svg width="15" height="15" fill="none" xmlns="http://www.w3.org/2000/svg">
  <path
    fill-rule="evenodd"
    clip-rule="evenodd"
    d="M0.5 7.50001C2 9.9 4.5 11.5 7.5 11.5C10.5 11.5 13 9.9 14.5 7.50001C13 5.1 10.5 3.5 7.5 3.5C4.5 3.5 2 5.1 0.5 7.50001Z"
    fill="currentColor"
    opacity=".2"
  />
  <path
    fill-rule="evenodd"
    clip-rule="evenodd"
    d="M7.5 11C4.80285 11 2.52952 9.62184 1.09622 7.50001C2.52952 5.37816 4.80285 4 7.5 4C10.1971 4 12.4705 5.37816 13.9038 7.50001C12.4705 9.62183 10.1971 11 7.5 11ZM7.5 3C4.30786 3 1.65639 4.70638 0.0760002 7.23501C-0.0253338 7.39715 -0.0253334 7.60288 0.0760014 7.76501C1.65639 10.2936 4.30786 12 7.5 12C10.6921 12 13.3436 10.2936 14.924 7.76501C15.0253 7.60288 15.0253 7.39715 14.924 7.23501C13.3436 4.70638 10.6921 3 7.5 3ZM7.5 9.5C8.60457 9.5 9.5 8.60457 9.5 7.5C9.5 6.39543 8.60457 5.5 7.5 5.5C6.39543 5.5 5.5 6.39543 5.5 7.5C5.5 8.60457 6.39543 9.5 7.5 9.5Z"
    fill="currentColor"
  />
</svg>

<svg width="15" height="15" fill="none" xmlns="http://www.w3.org/2000/svg">
  <path
    fill-rule="evenodd"
    clip-rule="evenodd"
    d="M.5 7.5c1.5 2.4 4 4 7 4s5.5-1.6 7-4c-1.5-2.4-4-4-7-4S2 5.1.5 7.5z"
    fill="currentColor"
    opacity=".2"
  />
  <path
    fill-rule="evenodd"
    clip-rule="evenodd"
    d="M7.5 11c-2.697 0-4.97-1.378-6.404-3.5C2.53 5.378 4.803 4 7.5 4s4.97 1.378 6.404 3.5C12.47 9.622 10.197 11 7.5 11zm0-8C4.308 3 1.656 4.706.076 7.235a.5.5 0 000 .53C1.656 10.294 4.308 12 7.5 12s5.844-1.706 7.424-4.235a.5.5 0 000-.53C13.344 4.706 10.692 3 7.5 3zm0 6.5a2 2 0 100-4 2 2 0 000 4z"
    fill="currentColor"
  />
</svg>
